X: 116003
Q: "Strathspey."
M: C
L: 1/8
K: Am
ue |\
vd/c/B/A/ G<B A<A, A,>uB, | vC>vDuE>u^F G2(GB) |\
(3ABc (3Bcd A<A, A,>uB, | C>DE^G A2(AB) |\
(d/c/B/A/) uB>u^G vA>vE u=G>uD | (E<G) B,>A, G,2 (G,A,/B,/) |
(3CB,A, (3DCB, (3EDC (3B,CD | (3Edc (3BA^G A2-A |]\
(uc/B/) |\
vA<ue vc>uB A/B/c/B/ AE | G<B G>D B,2 G,c/B/ |\
vc>vAuB>u^G A2 Ac/B/ |\
(3CB,A, (3DCB, (3EDC (3B,CD | (3Edc (3BA^G A2-A |]


